storage/app/icons/phosphoricons/bold/bookmarks-simple-bold.svg

<svg xmlns="http://www.w3.org/2000/svg" fill="currentColor" viewBox="0 0 256 256"><path d="M156 56H60a20 20 0 0 0-20 20v152a12 12 0 0 0 19 9.76l49-35 49 35a12 12 0 0 0 19-9.76V76a20 20 0 0 0-20-20m-4 148.68-37-26.45a12 12 0 0 0-14 0l-37 26.45V80h88ZM216 36v152a12 12 0 0 1-24 0V40H92a12 12 0 0 1 0-24h104a20 20 0 0 1 20 20"/></svg>

<svg xmlns="http://www.w3.org/2000/svg" viewBox="0 0 256 256" fill="currentColor"><path d="M156,56H60A20,20,0,0,0,40,76V228a12,12,0,0,0,19,9.76l49-35,49,35A12,12,0,0,0,176,228V76A20,20,0,0,0,156,56Zm-4,148.68-37-26.45a12,12,0,0,0-14,0L64,204.68V80h88ZM216,36V188a12,12,0,0,1-24,0V40H92a12,12,0,0,1,0-24H196A20,20,0,0,1,216,36Z"/></svg>
